X:1110
M:C
L:1/8
Q:1/4=120
K:A Dorian
f|g>ag>e dB`GB | A/B/c/d/ eA  cA`ef |!g>ag>e d<Bg>B| c>AB>G A<A a2 |
  g>bg>e d>gd>B|!G>g``````A>a B>bA>B| G<EE>D D>EG>B| c>AB>G A<A a2||!
  g>ee>d d>eg>a| b>a``````a>g a>gab | g<ee>d d>eg>a|!b>aa>g a<a b2:|
  g>ag>e dB`GB | A/B/c/d/ eA  cA`ef |!g>ag>e d<Bg>B| c>AB>G A<A a2 |
  g>ag>e d<Bg>B|!G>g``````A>a B>bA>B| G<EE>D D>EG>B| c>AB>G A<A e2|]

